!!!COM: Bach, Johann Sebastian
!!!CDT: 1685/3//-1750/7/28/
!!!OTL@@DE: Freu' dich sehr, O meine Seele
!!!AGN: 4-Part Chorale
!!!SCT: BH 282
!!!SCT: BWV 25
**harm	**root	**kern	**kern	**kern	**kern
!	!	!bass	!tenor	!alto	!soprno
*	*Iorgan	*Iorgan	*Iorgan	*Iorgan	*Iorgan
*M4/4	*M4/4	*M4/4	*M4/4	*M4/4	*M4/4
*met(c)	*met(c)	*met(c)	*met(c)	*met(c)	*met(c)
*MM60	*MM60	*MM60	*MM60	*MM60	*MM60
*k[b-e-]	*k[b-e-]	*k[b-e-]	*k[b-e-]	*k[b-e-]	*k[b-e-]
*B-:	*B-:	*B-:	*B-:	*B-:	*B-:
*>[A,A,B]	*>[A,A,B]	*>[A,A,B]	*>[A,A,B]	*>[A,A,B]	*>[A,A,B]
*>A	*>A	*>A	*>A	*>A	*>A
=1-	=1-	=1-	=1-	=1-	=1-
I	4CC	4BB-	4d	4f	4b-
V	4GG	4F	4A	4f	4cc
I	4CC	4B-	4B-	4f	4dd
Vb	4GG	4A	4c	4f	4cc
=2	=2	=2	=2	=2	=2
vi	4AA	4G	8d	4g	4b-
.	.	.	8e	.	.
V	4GG	4F	4f	4c	4a
V/V	4DD	4C	8f	4c	4g
.	.	.	8e	.	.
V;	4GG;	4F;	4A;	4c;	4f;
=3	=3	=3	=3	=3	=3
Ib	4CC	4D	4B-	4f	4b-
ii	4DD	4C	4e-	8g	4cc
.	.	.	.	8a	.
I	4CC	4BB-	8f	8b-	4dd
.	.	.	8B-	8f	.
Vb	4GG	4AA	[4c	4f	8cc
.	.	.	.	.	16dd
.	.	.	.	.	16ee-
=4	=4	=4	=4	=4	=4
I	4CC	4BB-	8c]	4f	4dd
.	.	.	8B-	.	.
V	4GG	4FF	8B-	4f	8.cc
.	.	.	8A	.	.
.	.	.	.	.	16b-
I;	2CC;	2BB-;	2d;	2f;	2b-;
*>B	*>B	*>B	*>B	*>B	*>B
=5:|!	=5:|!	=5:|!	=5:|!	=5:|!	=5:|!
I	4CC	4B-	4B-	4f	4dd
IVb	4FF	4G	4B-	8g	4ee-
.	.	.	.	16a-	.
.	.	.	.	16b-	.
I7b	4CC	4D	4B-	4a-	4ff
IV	4FF	4E-	8B-	4g	4ee-
.	.	.	8c	.	.
=6	=6	=6	=6	=6	=6
V7b/ii	4AA	4BB	8d	4f	4dd
.	.	.	8G	.	.
ii	4DD	4C	8G	8e-	4cc
.	.	.	8A	16g	.
.	.	.	.	16f#	.
VI;	2AA;	2GG;	2B;	2g;	2dd;
!!linebreak: 2
=7	=7	=7	=7	=7	=7
Ib	4CC	4D	8B-	4f	4ff
.	.	.	8c	.	.
I	4CC	4BB-	4d	4b-	4ff
IV	4FF	4E-	8e-	4b-	4gg
.	.	.	8d	.	.
V	4GG	4F	4c	4a	4ff
=8	=8	=8	=8	=8	=8
IVb	4FF	8G	4B-	4g	4ee-
.	.	8A	.	.	.
I	4CC	4B-	4B-	8f	4dd
.	.	.	.	8e	.
V;	2GG;	2F;	2A;	2f;	2cc;
=9	=9	=9	=9	=9	=9
I	4CC	4B-	8B-	4f	4dd
.	.	.	8c	.	.
I	4CC	4BB-	4d	8b-	4ff
.	.	.	.	8a	.
ii	4DD	4C	4e-	8g	4ee-
.	.	.	.	8a	.
Ib	4CC	4D	8f	4b-	8dd
.	.	.	8F	.	8cc
=10	=10	=10	=10	=10	=10
IV7	4FF	4E-	8G	4g	4b-
.	.	.	8d	.	.
Vb/V	4DD	4E	8c	4g	4cc
.	.	.	8B-	.	.
iiib	4EE	4F	2A	4a	2dd
Vb/vi	4EE	4F#	.	4d	.
=11	=11	=11	=11	=11	=11
vi;	2AA;	2G;	2G;	2d;	2b-;
iiiob	4EE	4F	4A-	8f	4dd
.	.	.	.	8g	.
V7/IV	4CC	4BB-	4D	4a-	4ff
=12	=12	=12	=12	=12	=12
ii	4DD	4C	4E-	8g	4ee-
.	.	.	.	8a	.
Ib	4CC	8D	8F	4b-	4dd
.	.	8E-	8G	.	.
V	4GG	8F	4A	4f	4cc
.	.	8E-	.	.	.
Ib	4CC	8D	4B-	4f	4b-
.	.	8BB-	.	.	.
=13	=13	=13	=13	=13	=13
V	2GG	2FF	4B-	2f	2cc
.	.	.	4A	.	.
I;	2CC;	2BB-;	2d;	2f;	2b-;
==	==	==	==	==	==
*-	*-	*-	*-	*-	*-
!!chor2scor: -l 2 -s 0.6 -o %b.pmx
!!!YEC: Copyright 1994, David Huron
!!!YEC: Changes/Additions 2001 by Craig Stuart Sapp
!!!YEN: United States of America
!!!SMA: 371 Bach Chorales, edited by Ludwig Erk, C.F. Peters
!!!PDT: 1850, 1865
!!!ONB: Harmony and Root analysis done manually
